public/assets/logo-jotai.svg

<svg width="290" height="100" viewBox="0 0 290 100" fill="none" xmlns="http://www.w3.org/2000/svg">
<g clip-path="url(#clip0_338_6)">
<path d="M42.36 5.32001H61.82V70.23C61.9633 75.704 60.5782 81.1095 57.82 85.84C55.1381 90.2406 51.2608 93.7884 46.64 96.07C41.4736 98.5693 35.7878 99.8065 30.05 99.68C24.8131 99.7542 19.6186 98.7323 14.8 96.68C10.3798 94.7854 6.62121 91.6219 4 87.59C1.33333 83.53 0 78.41 0 72.23H19.59C19.65 75.92 20.72 78.8 22.8 80.84C23.8968 81.8819 25.1932 82.6911 26.6111 83.2187C28.0289 83.7463 29.5389 83.9815 31.05 83.91C38.53 83.91 42.3 79.35 42.36 70.23V5.32001Z" fill="#FFFFFB"/>
<path d="M105 99.77C97.94 99.77 91.8434 98.2633 86.71 95.25C81.6078 92.275 77.4777 87.8844 74.82 82.61C71.9297 76.7583 70.4957 70.295 70.64 63.77C70.4903 57.2156 71.9242 50.7219 74.82 44.84C77.4806 39.5676 81.61 35.1777 86.71 32.2C92.2887 29.0745 98.6076 27.5129 105 27.68C111.395 27.514 117.717 29.0755 123.3 32.2C128.397 35.1779 132.524 39.568 135.18 44.84C138.079 50.7212 139.516 57.2148 139.37 63.77C139.511 70.2958 138.074 76.7592 135.18 82.61C132.526 87.884 128.4 92.2749 123.3 95.25C118.16 98.27 112.06 99.7767 105 99.77ZM127.14 5.32001V15.82H82.87V5.32001H127.14ZM105.14 84.77C107.33 84.8598 109.503 84.3481 111.423 83.2904C113.343 82.2327 114.936 80.6693 116.03 78.77C118.497 74.77 119.73 69.7267 119.73 63.64C119.73 57.5533 118.487 52.5 116 48.48C114.906 46.5807 113.313 45.0174 111.393 43.9596C109.473 42.9019 107.3 42.3902 105.11 42.48C102.904 42.3864 100.715 42.8955 98.7769 43.9527C96.8389 45.0098 95.2255 46.5749 94.11 48.48C91.6234 52.48 90.38 57.5333 90.38 63.64C90.38 69.7467 91.6234 74.79 94.11 78.77C95.2247 80.6712 96.8351 82.2338 98.7691 83.2906C100.703 84.3475 102.888 84.8588 105.09 84.77H105.14Z" fill="#FFFFFB"/>
<path d="M186.3 28.59V43.14H173.16V77C173.16 79.6667 173.767 81.4667 174.98 82.4C176.352 83.3902 178.019 83.8871 179.71 83.81C180.622 83.8111 181.533 83.7274 182.43 83.56L184.52 83.18L187.52 97.59C186.52 97.89 185.19 98.25 183.43 98.65C181.322 99.1019 179.176 99.353 177.02 99.4C169.987 99.7133 164.343 98.1933 160.09 94.84C155.837 91.4866 153.74 86.3733 153.8 79.5V43.14H144.25V28.59H153.8V11.86H173.16V28.59H186.3Z" fill="#FFFFFB"/>
<path d="M216 99.73C209.333 99.73 203.803 97.9867 199.41 94.5C195.017 91.0133 192.82 85.8167 192.82 78.91C192.82 73.7034 194.047 69.6133 196.5 66.64C199.046 63.6028 202.393 61.3405 206.16 60.11C210.316 58.6988 214.627 57.7923 219 57.41C223.371 57.0632 227.714 56.4251 232 55.5C234.613 54.8333 235.917 53.38 235.91 51.14V50.86C235.982 49.6162 235.777 48.3718 235.311 47.2166C234.844 46.0615 234.126 45.0243 233.21 44.18C231.397 42.6133 228.843 41.8267 225.55 41.82C222.605 41.6663 219.689 42.462 217.23 44.09C215.252 45.4941 213.81 47.5287 213.14 49.86L195.23 48.41C196.424 42.2555 199.991 36.8175 205.16 33.27C210.453 29.55 217.28 27.6867 225.64 27.68C230.593 27.6411 235.515 28.4738 240.18 30.14C244.473 31.6162 248.264 34.2707 251.12 37.8C253.893 41.2733 255.28 45.78 255.28 51.32V98.41H236.92V88.73H236.38C234.623 92.0278 231.985 94.7731 228.76 96.66C225.38 98.7067 221.127 99.73 216 99.73ZM221.54 86.36C225.371 86.5089 229.114 85.1849 232 82.66C233.311 81.5169 234.356 80.1013 235.062 78.5122C235.769 76.9231 236.119 75.1988 236.09 73.46V66.05C235.001 66.6961 233.811 67.1557 232.57 67.41C230.97 67.8 229.28 68.14 227.47 68.41C225.66 68.68 224.06 68.95 222.63 69.16C219.713 69.4773 216.908 70.4591 214.43 72.03C213.419 72.7102 212.601 73.6406 212.056 74.7305C211.511 75.8205 211.257 77.033 211.32 78.25C211.259 79.4113 211.491 80.5694 211.994 81.6178C212.497 82.6662 213.256 83.5713 214.2 84.25C216.356 85.7001 218.913 86.438 221.51 86.36H221.54Z" fill="#FFFFFB"/>
<path d="M278.69 19.59C275.949 19.6348 273.3 18.5963 271.32 16.7C270.339 15.8335 269.555 14.7664 269.022 13.5708C268.489 12.3752 268.219 11.079 268.23 9.77C268.219 8.46393 268.489 7.1708 269.022 5.97847C269.556 4.78614 270.339 3.72256 271.32 2.86C273.344 1.02456 275.978 0.00787354 278.71 0.00787354C281.442 0.00787354 284.076 1.02456 286.1 2.86C287.081 3.72256 287.864 4.78614 288.398 5.97847C288.931 7.1708 289.201 8.46393 289.19 9.77C289.201 11.079 288.931 12.3752 288.398 13.5708C287.865 14.7664 287.081 15.8335 286.1 16.7C284.107 18.6024 281.444 19.641 278.69 19.59ZM269 98.41V28.59H288.36V98.41H269Z" fill="#FFFFFB"/>
</g>
<defs>
<clipPath id="clip0_338_6">
<rect width="289.19" height="99.77" fill="white"/>
</clipPath>
</defs>
</svg>

<svg xmlns="http://www.w3.org/2000/svg" viewBox="0 0 289.19 99.77" class="text-black dark:text-white w-full max-w-[12rem] lg:max-w-[16rem] 2xl:max-w-[18rem]"><title>Jotai</title><path d="M42.36,5.32H61.82V70.23a29.46,29.46,0,0,1-4,15.61A27.19,27.19,0,0,1,46.64,96.07a36.26,36.26,0,0,1-16.59,3.61,37.56,37.56,0,0,1-15.25-3A24.3,24.3,0,0,1,4,87.59Q0,81.5,0,72.23H19.59c.06,3.69,1.13,6.57,3.21,8.61a11.21,11.21,0,0,0,8.25,3.07q11.22,0,11.31-13.68Z" fill="currentColor"></path><path d="M105,99.77q-10.59,0-18.29-4.52A30.54,30.54,0,0,1,74.82,82.61a40.52,40.52,0,0,1-4.18-18.84,40.75,40.75,0,0,1,4.18-18.93A30.6,30.6,0,0,1,86.71,32.2,35.52,35.52,0,0,1,105,27.68a35.58,35.58,0,0,1,18.3,4.52,30.57,30.57,0,0,1,11.88,12.64,40.76,40.76,0,0,1,4.19,18.93,40.52,40.52,0,0,1-4.19,18.84A30.51,30.51,0,0,1,123.3,95.25Q115.59,99.78,105,99.77ZM127.14,5.32v10.5H82.87V5.32Zm-22,79.45a12,12,0,0,0,10.89-6q3.7-6,3.7-15.13T116,48.48a12,12,0,0,0-10.89-6,12.15,12.15,0,0,0-11,6q-3.73,6-3.73,15.16t3.73,15.13A12.16,12.16,0,0,0,105.09,84.77Z" fill="currentColor"></path><path d="M186.3,28.59V43.14H173.16V77q0,4,1.82,5.4a7.5,7.5,0,0,0,4.73,1.41,14.72,14.72,0,0,0,2.72-.25l2.09-.38,3,14.41c-1,.3-2.33.66-4.09,1.06a34.13,34.13,0,0,1-6.41.75q-10.55.47-16.93-4.56T153.8,79.5V43.14h-9.55V28.59h9.55V11.86h19.36V28.59Z" fill="currentColor"></path><path d="M216,99.73q-10,0-16.59-5.23t-6.59-15.59q0-7.81,3.68-12.27a21.19,21.19,0,0,1,9.66-6.53A54.78,54.78,0,0,1,219,57.41a98.57,98.57,0,0,0,13-1.91q3.92-1,3.91-4.36v-.28a8.42,8.42,0,0,0-2.7-6.68q-2.72-2.35-7.66-2.36a13.77,13.77,0,0,0-8.32,2.27,10.7,10.7,0,0,0-4.09,5.77l-17.91-1.45a23.88,23.88,0,0,1,9.93-15.14q7.94-5.58,20.48-5.59a42.24,42.24,0,0,1,14.54,2.46,24.19,24.19,0,0,1,10.94,7.66q4.16,5.21,4.16,13.52V98.41H236.92V88.73h-.54a20.18,20.18,0,0,1-7.62,7.93Q223.69,99.73,216,99.73Zm5.54-13.37A15,15,0,0,0,232,82.66a11.94,11.94,0,0,0,4.09-9.2V66.05a11.38,11.38,0,0,1-3.52,1.36c-1.6.39-3.29.73-5.1,1s-3.41.54-4.84.75a19.19,19.19,0,0,0-8.2,2.87,7.06,7.06,0,0,0-3.11,6.22,6.94,6.94,0,0,0,2.88,6A12.43,12.43,0,0,0,221.51,86.36Z" fill="currentColor"></path><path d="M278.69,19.59a10.41,10.41,0,0,1-7.37-2.89,9.14,9.14,0,0,1-3.09-6.93,9.1,9.1,0,0,1,3.09-6.91,11,11,0,0,1,14.78,0,9.1,9.1,0,0,1,3.09,6.91,9.14,9.14,0,0,1-3.09,6.93A10.45,10.45,0,0,1,278.69,19.59ZM269,98.41V28.59h19.36V98.41Z" fill="currentColor"></path></svg>
